X:1
T:Där borta
T:Ludvig Norman (1831-1885)
T:På berget
T:©PA Aglert Edition may be freely distributed, duplicated, performed and recorded
T:©PA Aglert Edition may be freely distributed, duplicated, performed and recorded
T:©PA Aglert Edition may be freely distributed, duplicated, performed and recorded
T:©PA Aglert Edition may be freely distributed, duplicated, performed and recorded
T:©PA Aglert Edition may be freely distributed, duplicated, performed and recorded
T:©PA Aglert Edition may be freely distributed, duplicated, performed and recorded
C:Ludvig Norman (1831-1885)
Z:©PA Aglert
Z:Edition may be freely distributed, duplicated, performed and recorded
%%score [ 1 2 3 4 ]
L:1/8
Q:1/4=120
M:4/4
K:Cmin
V:1 treble nm="S"
V:2 treble nm="A"
V:3 treble-8 nm="T"
V:4 bass nm="B"
V:1
"^Allegretto con moto""^1"!p! G2 | c2 e2 g2 de | c2 G2 z2 G2 |!<(! e3 e!<)!!>(! e2 d!>)!c | %4
w: När|förr små blom- mor- na|spräng- de för|vå- rens vär- me sin|
 d4 z2!pp! G2 | c2 =e2 g2 de | c2 G2 z2 G2 |!<(! =e3 e!<)!!>(! (e2 d)c!>)! | d4 z2!f! G2 | %9
w: knopp, på|bran- ta alp- sti- gen|kläng- de den|un- ge her- * den|opp. Nu|
 !>!=e3 e e2 de | f2 f2 !courtesy!_e2!p! e2 | d2 ef c2 de | =B2 d2 c2 z2 | %13
w: vår- sol ly- ser på|nytt så klar, men|var är min älsk- li- ge|her- de, var?|
 z2!f! c2 =B2!>(! cd!>)! | e2"^dim." dc d2!p! e2 | c4 z2!p! G2 |"^2" c2 e2 g2 de | c2 G2 z2 G2 | %18
w: Ja, var är min|älsk- li- ge her- de,|var? För|lam- men små har du|be- te, där|
!<(! e3!<)! e!>(! e2 d!>)!c | d4 z2!pp! G2 | c2 =e2 g2 de | c2 G2 z2 G2 | =e3 e e2 (dc) | %23
w: ber- get gröns- kan- de|står. Och|lär- kan högt upp i|rym- den de|gla- da dril- lar _|
 d4 z2!f! G2 | !>!=e3 e e2 (de) | f2 f2 !courtesy!_e2!p! e2 | d2 ef c2 de | =B2 d2 c2 z2 | %28
w: slår. En|fläkt så sval kring _|fäl- ten far! Men|var är min älsk- li- ge|her- de, var?|
 z2!f! c2 =B2 cd | e2"^dim." dc d2 e2 | c4 z2!f! G2 |"^3" c2 e2 g2 de | c2 G2 z2 G2 | e3 e e2 dc | %34
w: Ja, var är min|älsk- li- ge her- de,|var? Sin|doft kring än- gar- na|spri- da de|tu- sen blom- mor- na|
 d4 z2!p! G2 | c2 =e2 g2 de | c2 G2 z2 G2 |!<(! =e3 e!<)!!>(! e2 (d!>)!c) | d4 z2!f! G2 | %39
w: små. Min|vack- ra her- de de|bi- da, att|ho- nom häl- sa _|få, och|
 =e2 ee e2 (de) | f2 f2 !courtesy!_e2 z2 | z2!p! c2 z2 c2 |!<(! d2 g!<)!f!>(! e2 dc!>)! | %43
w: björ- kar- na frå- ga _|par om par:|Var, ja|var är den älsk- li- ge|
!<(! A2 c2 f2!<)! f2 |!p! e2"^un poco rit."!>(! dc d2!>)! e2 | c4 z4 |] %46
w: her- de, var? Ja,|var är min her- de,|var?|
V:2
!p! G2 | (E4 D3) G | E2 GG D2 FF |!<(! E2 G2!<)!!>(! ^F2 FF!>)! | D4 z2!pp! F2 | (=E4 D3) G | %6
w: När|förr _ små|blom- mor- na spräng- de för|vå- rens vär- me sin|knopp, på|bran- * ta|
 =E2 GG D2 FF |!<(! =E2 G2!<)!!>(! ^F3 F!>)! | D4 z2!f! G2 | !>!G3 G G2 FG | A2 A2 G2!p! G2 | %11
w: alp- sti- gen kläng- de den|un- ge her- den|opp. Nu|vår- sol ly- ser på|nytt så klar, men|
 F2 GA E2 FG | G2 G2 G2 z2 | z2!f! A2 A2!>(! AA!>)! | G2"^dim." FE A2!p! G2 | E4 z2!p! G2 | %16
w: var är min älsk- li- ge|her- de, var?|Ja, var är min|älsk- li- ge her- de,|var? För|
 (E4 D3) G | E2 GG D2 FF |!<(! E2 G2!<)!!>(! ^F2 F!>)!F | D4 z2!pp! F2 | (=E4 D3) G | %21
w: lam- * men|små har du be- te, där|ber- get gröns- kan- de|står. Och|lär- * kan|
 =E2 GG D2 F2 | =E2 GG ^F3 F | D4 z2!f! G2 | !>!G3 G G2 (FG) | A2 A2 G2!p! G2 | F2 GA E2 FG | %27
w: högt upp i rym- den|glatt si- na dril- lar|slår. En|fläkt så sval kring _|fäl- ten far! Men|var är min älsk- li- ge|
 G2 G2 G2 z2 | z2!f! A2 A2 AA | G2"^dim." FE A2 G2 | E4 z2!f! G2 | (E4 D3) G | E2 GG D2 FF | %33
w: her- de, var?|Ja, var är min|älsk- li- ge her- de,|var? Sin|doft _ kring|än- gar- na spri- da de|
 E2 G2 ^F2 FF | D4 z2!p! F2 | (=E4 D3) G | =E2 GG D2 FF |!<(! =E2 G2!<)!!>(! ^F3 F!>)! | %38
w: tu- sen blom- mor- na|små. Min|vack- * ra|her- de de bi- da, att|ho- nom häl- sa|
 D4 z2!f! G2 | G2 GG G2 (FG) | A2 A2 G2 z2 | z2!p! A2 z2 G2 |!<(! G2 =B!<)!B!>(! c2 GE!>)! | %43
w: få, och|björ- kar- na frå- ga _|par om par:|Var, ja|var är den älsk- li- ge|
!<(! F2 A2!<)! A2 A2 |!p! G2!>(! FE A2!>)! G2 | E4 z4 |] %46
w: her- de, var? Ja,|var är min her- de,|var?|
V:3
!p! G2 | G6 G2 | G2 ee =B2 dd |!<(! c6!<)!!>(! (=B=A)!>)! | =B2 Bc d2!pp! G2 | G4- G2 G2 | %6
w: När|förr små|blom- mor- na spräng- de för|vå- rens _|vär- me sin knopp, på|bran- * ta|
 G2 =ee =B2 dd |!<(! c4-!<)!!>(! c2 (=B!>)!=A) | =B2 (Bc) d2!f! G2 | !>!c3 c !courtesy!_B2 cB | %10
w: alp- sti- gen kläng- de den|un- * ge _|her- den _ opp. Nu|vår- sol ly- ser på|
 A2 (cd) e2 z2 | z2!p! c2 z2 c2 |!<(! d2 g!<)!f!>(! e2 d!>)!c |!f!!<(! A2 c2!<)! f2 f2 | %14
w: nytt så _ klar,|var? Ja,|var är min älsk- li- ge|her- de, var? Ja,|
 e2"^dim." =Bc c2!p! B2 | c4 z2!p! G2 | G6 G2 | G2 ee =B2 dd |!<(! c6!<)!!>(! (=B!>)!=A) | %19
w: var är min her- de,|var? För|lam- men|små har du be- te, där|ber- get _|
 =B2 Bc d2!pp! G2 | G6 G2 | G2 =ee =B2 d2 | c6 =B=A | =B2 (Bc) d2!f! G2 | %24
w: gröns- kan- de står. Och|lär- kan|högt upp i rym- den|glatt si- na|dril- lar _ slår. En|
 !>!c3 c !courtesy!_B2 (cB) | A2 (cd) !courtesy!_e2 z2 | z2!p! c2 z2 c2 | d2!<(! gf e2 dc!<)! | %28
w: fläkt så sval kring _|fäl- ten _ far!|var? Ja,|var är min älsk- li- ge|
!f!!<(! A2 c2!<)! f2 f2 | e2"^dim." =Bc c2 B2 | c4 z2!f! G2 | G6 G2 | G2 ee =B2 dd | c6 (=B=A) | %34
w: her- de, var? Ja,|var är min her- de,|var? Sin|doft kring|än- gar- na spri- da de|tu- sen _|
 =B2 Bc d2!p! G2 | G6 G2 | G2 =ee =B2 dd |!<(! c4-!<)!!>(! c2 (=B!>)!=A) | =B2 (Bc) d2!f! G2 | %39
w: blom- mor- na små. Min|vack- ra|her- de de bi- da, att|ho- * nom _|häl- sa _ få, och|
 c2 cc !courtesy!_B2 (cB) | A2 (cd) e2!p! e2 | d2 ef c2 de | =B2 d2 c2 z2 | %43
w: björ- kar- na frå- ga _|par om _ par: Var,|är han, min älsk- li- ge|her- de, var?|
 z2!<(! c2 =B2!<)!!>(! c!>)!d |!p! e2!>(! =Bc c2!>)! B2 | c4 z4 |] %46
w: var är han min|äls- li- ge her- de,|var?|
V:4
!p! G,2 | C,2 G,,2 =B,,2 G,,G,, | C,2 C,2 z2 G,,2 |!<(! (C,4!<)!!>(! D,2) D,2!>)! | %4
w: När|förr små blom- mor- na|spräng- de för|vå- * rens|
 G,,2 G,,=A,, =B,,2!pp! G,2 | C,2 G,,2 =B,,2 G,,G,, | C,2 C,2 z2 G,,2 | %7
w: vär- me sin knopp, på|bran- ta alp- sti- gen|kläng- de den|
!<(! (C,4!<)!!>(! D,2) D,2!>)! | G,,2 (G,,=A,,) =B,,2!f! G,2 | !>!C,3 C, C,2 C,C, | %10
w: un- * ge|her- den _ opp. Nu|vår- sol ly- ser på|
 F,,2 (A,,=B,,) C,2 z2 | z2!p! F,,2 z2 G,,2 |!<(! G,,2 G,,!<)!=B,,!>(! C,2 D,!>)!E, | %13
w: nytt så _ klar,|var? Ja,|var är min älsk- li- ge|
!f!!<(! F,2 E,2!<)! D,2 (C,=B,,) | C,2"^dim." G,A, F,2!p! G,2 | C,4 z2!p! G,2 | %16
w: her- de, var? Ja, _|var är min her- de,|var? För|
 C,2 G,,2 =B,,2 G,,G,, | C,2 C,2 z2 G,,2 |!<(! (C,4!<)!!>(! D,2) D,2!>)! | %19
w: lam- men små har du|be- te, där|ber- * get|
 G,,2 G,,=A,, =B,,2!pp! G,2 | C,2 G,,2 =B,,2 G,,G,, | C,2 C,2 z2 G,2 | (C,4 D,2) D,2 | %23
w: gröns- kan- de står. Och|lär- kan högt upp i|rym- den de|gla- * da|
 G,,2 (G,,=A,,) =B,,2!f! G,2 | !>!C,3 C, C,2 C,2 | F,,2 (A,,=B,,) C,2 z2 | z2!p! F,,2 z2 G,,2 | %27
w: dril- lar _ slår. En|fläkt så sval kring|fäl- ten _ far!|var? Ja,|
 G,,2!<(! G,,=B,, C,2 D,!<)!E, |!f!!<(! F,2 E,2!<)! D,2 (C,=B,,) | C,2"^dim." G,A, F,2 G,2 | %30
w: var är min älsk- li- ge|her- de, var? Ja, _|var är min her- de,|
 C,4 z2!f! G,2 | C,2 G,,2 =B,,2 G,,G,, | C,2 C,2 z2 G,2 | (C,4 D,2) D,2 | %34
w: var? Sin|doft kring än- gar- na|spri- da de|tu- * sen|
 G,,2 G,,=A,, =B,,2!p! G,2 | C,2 G,,2 =B,,2 G,,G,, | C,2 C,2 z2 G,2 | %37
w: blom- mor- na små. Min|vack- ra her- de de|bi- da, att|
!<(! (C,4!<)!!>(! D,2) D,2!>)! | G,,2 (G,,=A,,) =B,,2!f! G,2 | C,2 C,C, C,2 C,2 | %40
w: ho- * nom|häl- sa _ få, och|björ- kar- na frå- ga|
 F,,2 (A,,=B,,) C,2!p! C,2 | F,2 E,D, E,2 D,C, | G,2 G,,2 C,2 z2 | %43
w: par om _ par: Var,|är han, min älsk- li- ge|her- de, var?|
 z2!<(! F,2 D,2!<)!!>(! C,=B,,!>)! |!p! C,2!>(! G,A, F,2!>)! G,2 | C,4 z4 |] %46
w: var är han min|äls- li- ge her- de,|var?|

